package/converter/svg/light/microphone-slash.svg

<svg xmlns="http://www.w3.org/2000/svg" viewBox="0 0 640 512"><!-- Font Awesome Pro 6.0.0-alpha2 by @fontawesome - https://fontawesome.com License - https://fontawesome.com/license (Commercial License) --><path d="M480 256V208C480 199.199 472.801 192 464 192C455.2 192 448 199.199 448 208V256C448 262.172 446.953 268.059 446.106 273.998L474.227 296.197C477.612 283.279 480 269.971 480 256ZM256.001 96C256.001 60.75 284.751 32 320.001 32S384 60.75 384 96V224.965L416 250.229V96C416 43 373 0 320.001 0S224.001 43 224.001 96V98.646L256.001 123.91V96ZM633.924 483.436L25.921 3.42C18.983 -2.033 8.921 -0.83 3.437 6.061C-2.032 12.998 -0.845 23.061 6.077 28.545L614.08 508.562C617.018 510.875 620.518 512 623.986 512C628.721 512 633.408 509.906 636.564 505.922C642.033 498.984 640.846 488.92 633.924 483.436ZM400 480H336.001V415C357.213 412.865 377.088 406.393 395.055 396.799L367.071 374.705C349.915 381.547 331.088 385.049 311.251 383.75C243.251 379.125 192.001 319.625 192.001 251.5V236.486L160.001 211.223V250.375C160.001 333.75 221.626 406.5 304.001 414.75V480H240.001C231.2 480 224.001 487.199 224.001 496C224.001 504.799 231.2 512 240.001 512H400C408.801 512 416 504.799 416 496C416 487.199 408.801 480 400 480Z"/></svg>

<svg xmlns="http://www.w3.org/2000/svg" viewBox="0 0 640 512"><!--! Font Awesome Pro 6.6.0 by @fontawesome - https://fontawesome.com License - https://fontawesome.com/license (Commercial License) Copyright 2024 Fonticons, Inc. --><path d="M474.8 296.7c3.4-13 5.2-26.6 5.2-40.7l0-48c0-8.8-7.2-16-16-16s-16 7.2-16 16l0 48c0 6.3-.5 12.4-1.3 18.5l28.1 22.2zM416 250.2L416 96c0-53-43-96-96-96s-96 43-96 96l0 2.7 32 25.3L256 96c0-35.3 28.7-64 64-64s64 28.7 64 64l0 129 32 25.3zM192 236.5l-32-25.3 0 44.8c0 83 63.1 151.2 144 159.2l0 64.8-64 0c-8.8 0-16 7.2-16 16s7.2 16 16 16l80 0 80 0c8.8 0 16-7.2 16-16s-7.2-16-16-16l-64 0 0-64.8c21.3-2.1 41.4-8.4 59.5-18.1l-28.1-22.2c-14.7 5.8-30.6 9.1-47.4 9.1c-70.7 0-128-57.3-128-128l0-19.5zM25.9 3.4C19-2 8.9-.8 3.4 6.1S-.8 23.1 6.1 28.6l608 480c6.9 5.5 17 4.3 22.5-2.6s4.3-17-2.6-22.5L25.9 3.4z"/></svg>
